assets/images/svg/mth.svg

<svg height="32" viewBox="0 0 32 32" width="32" xmlns="http://www.w3.org/2000/svg"><g fill="none"><circle cx="16" cy="16" fill="#104fca" r="16"/><g fill="#fff" transform="translate(7 9)"><path d="m0 .56757699 4.2345 7.10328525v7.32913776c-2.33865 0-4.2345-1.8360837-4.2345-4.101075z" fill-opacity=".5"/><path d="m13.76487 7.66320318 4.2319086-7.09893822h.0025914v10.33466004c0 2.2649913-1.89585 4.101075-4.2345 4.101075z" fill-opacity=".6"/><path d="m8.99739174 7.45835186-2.11725174 3.55161324c-.43914-.1106914-.91125-.5363451-1.41633-1.27696103l-5.46381-9.16542708c2.025-1.13245206 4.61511-.46037188 5.78439 1.50113306z" fill-opacity=".8"/><path d="m12.21561 2.05990703c1.16928-1.96150494 3.75939-2.63358512 5.78439-1.5010459l-5.46381 9.16542707c-.75762 1.1109239-2.0583 1.843928-3.53583 1.843928-.65968947.0009185-1.3103983-.1480775-1.89981-.4350088l-.22041-.1232423z"/></g></g></svg>

<svg xmlns="http://www.w3.org/2000/svg" xmlns:xlink="http://www.w3.org/1999/xlink" width="32" height="32" viewBox="0 0 32 32">
  <defs>
    <linearGradient id="mth-c" x1="50%" x2="50%" y1="0%" y2="100%">
      <stop offset="0%" stop-color="#FFF" stop-opacity=".5"/>
      <stop offset="100%" stop-opacity=".5"/>
    </linearGradient>
    <circle id="mth-b" cx="16" cy="15" r="15"/>
    <filter id="mth-a" width="111.7%" height="111.7%" x="-5.8%" y="-4.2%" filterUnits="objectBoundingBox">
      <feOffset dy=".5" in="SourceAlpha" result="shadowOffsetOuter1"/>
      <feGaussianBlur in="shadowOffsetOuter1" result="shadowBlurOuter1" stdDeviation=".5"/>
      <feComposite in="shadowBlurOuter1" in2="SourceAlpha" operator="out" result="shadowBlurOuter1"/>
      <feColorMatrix in="shadowBlurOuter1" values="0 0 0 0 0   0 0 0 0 0   0 0 0 0 0  0 0 0 0.199473505 0"/>
    </filter>
    <filter id="mth-d" width="119.4%" height="123.3%" x="-9.7%" y="-8.3%" filterUnits="objectBoundingBox">
      <feOffset dy=".5" in="SourceAlpha" result="shadowOffsetOuter1"/>
      <feGaussianBlur in="shadowOffsetOuter1" result="shadowBlurOuter1" stdDeviation=".5"/>
      <feColorMatrix in="shadowBlurOuter1" result="shadowMatrixOuter1" values="0 0 0 0 0   0 0 0 0 0   0 0 0 0 0  0 0 0 0.204257246 0"/>
      <feMerge>
        <feMergeNode in="shadowMatrixOuter1"/>
        <feMergeNode in="SourceGraphic"/>
      </feMerge>
    </filter>
  </defs>
  <g fill="none" fill-rule="evenodd">
    <g fill-rule="nonzero">
      <use fill="#000" filter="url(#mth-a)" xlink:href="#mth-b"/>
      <use fill="#104FCA" fill-rule="evenodd" xlink:href="#mth-b"/>
      <use fill="url(#mth-c)" fill-rule="evenodd" style="mix-blend-mode:soft-light" xlink:href="#mth-b"/>
      <circle cx="16" cy="15" r="14.5" stroke="#000" stroke-opacity=".097"/>
    </g>
    <g fill="#FFF" fill-rule="nonzero" filter="url(#mth-d)" transform="translate(7 8)">
      <path fill-opacity=".5" d="M0,0.56757699 L4.2345,7.67086224 L4.2345,15 C1.89585,15 0,13.1639163 0,10.898925 L0,0.56757699 Z"/>
      <path fill-opacity=".6" d="M13.76487,7.66320318 L17.9967786,0.564264962 L17.99937,0.564264962 L17.99937,10.898925 C17.99937,13.1639163 16.10352,15 13.76487,15 L13.76487,7.66320318 Z"/>
      <path fill-opacity=".8" d="M8.99739174,7.45835186 L6.88014,11.0099651 C6.441,10.8992737 5.96889,10.47362 5.46381,9.73300407 L0,0.56757699 C2.025,-0.564875073 4.61511,0.107205113 5.78439,2.06871005 L8.99739174,7.45835186 Z"/>
      <path d="M12.21561,2.05990703 C13.38489,0.0984020918 15.975,-0.573678094 18,0.558861127 L12.53619,9.7242882 C11.77857,10.8352121 10.47789,11.5682162 9.00036,11.5682162 C8.34067053,11.5691347 7.6899617,11.4201387 7.10055,11.1332074 L6.88014,11.0099651 L12.21561,2.05990703 Z"/>
    </g>
  </g>
</svg>
